X:135
T:Mrs McLead. RH.135
T:Mrs McLeod,aka. RH.135
R:Reel
S:Rev.R.Harrison’s MS,c1815,Cumbria
O:England
A:Temple Sowerby,Cumbria
Z:vmp.Simon Wilson. Review PJH, 2008.
M:C
L:1/8
Q:1/2=100
K:D
c|A2a2 {g}fefa|c>cc>B c2c>B|\
A2a2 {g}fefa|B>BB>A B2Bc|!
A2a2 {g}fefa|c>cc>B c2ce|\
fgfe f2ef/g/|{g}a2ec B2-B||!
c|AAcA eccf|c>cc>B c2c>a|\
AAcA ecce|B>BB>A B2Bc|!
AAcA ecca|c>cc>B c2ce|\
fgfe f2ef/g/|{g}a2ec B2B|]

